assets/img/LOGOS/WHITE_LOGO/icon.svg

<svg width="364" height="377" fill="none" xmlns="http://www.w3.org/2000/svg"><path d="M182 373c98.176 0 178-82.47 178-184.5S280.176 4 182 4 4 86.47 4 188.5 83.824 373 182 373z" fill="#fff" stroke="#C8B268" stroke-width="8" stroke-miterlimit="10"/><path d="M119.998 141.87l-7.153-50.633s-1.364-5.036 2.557-4.34c3.921.693 56.937 8.337 56.937 8.337s4.807.52 4.536 4.516c-.273 3.996-1.636 36.825-22.604 42.905-8.525 2.43-16.537-4.691-16.878-8.513-.34-3.82 33.925-9.206 45.688 23.45 10.398 32.83 11.25 47.941 11.25 47.941s.854 2.606-2.045 2.432c-2.899-.174-14.66-8.338 1.535-13.2l9.545-.348s8.355-.174 8.355 6.078c0 6.254-4.603 7.47-7.16 7.296-2.558-.173-1.535-3.187-1.535-3.187s2.897-73.588 1.875-76.368c.17-3.647 1.365-4.863 4.433-4.689 3.58.174 38.016 3.821 38.868 4.516.852.695 4.603.347 3.24 4.863-1.365 4.517-10.571 29.876-36.996 17.892-4.089-2.085 5.457-6.079 7.331-6.253 2.388-.522 13.64-3.127 26.936 2.78 13.297 5.904 10.91 5.21 10.91 5.21s3.068 1.217 3.922-4.516c.852-5.732 4.944-33.004 4.602-35.956-.341-2.953 1.364-3.648-4.942-5.906-6.308-2.257-105.866-40.994-120.868-49.852-3.41-1.39-7.16-2.432-7.16.868s1.47 33.047 1.47 33.047m-16.07 55.725l-.579-4.096" stroke="#C7B169" stroke-width="4" stroke-miterlimit="10" stroke-linecap="round" stroke-linejoin="round"/><path d="M121.369 207.488l-2.492 113.578s-.74 3.441-2.112 1.194c-1.028-1.686 1.193-22.754 24.208-27.793 23.015-5.037 46.369-5.861 58.473 8.86 13.467 16.153 9.035 17.543 7.672 16.5-1.365-1.041-31.197-34.305-34.266-38.385-1.888-2.513-7.842-20.672 11.422-19.108-5.456-4.517-28.128-9.033-46.541-30.225-18.411-21.191-34.435-64.268-34.435-64.268s-1.193-1.912 1.194-2.258c2.386-.348 39.378-6.949 50.46-5.559 10.398 1.911 21.82 27.618 9.546 43.425-4.602 5.733-28.81 9.033-30.856 2.779-1.685-5.151-8.052-33.211-10.305-43.213m-2.855-16.049c2.702-5.755 7.927-11.43 17.883-14.031m-20.484 30.478s-1.222-8.304 2.601-16.446" stroke="#C7B169" stroke-width="4" stroke-miterlimit="10" stroke-linecap="round" stroke-linejoin="round"/><path d="M182.396 261.101c2.421 1.329 3.862 1.794 6.408 2.09 6.393.747 12.188-6.336 12.188-12.891 0-6.558-5.163-12.395-11.598-12.395" stroke="#C7B169" stroke-width="4" stroke-miterlimit="10" stroke-linecap="round" stroke-linejoin="round"/><path d="M172.192 222.404s8.054-6.383 8.374-6.774c.32-.39 1.279-1.433 3.07 0 1.789 1.432 6.584 6.187 13.678.391 1.792-1.123 2.303-.978 2.878-.391.576.586 9.718 8.012 9.718 8.012s2.3 1.172.831 4.298c-1.471 3.127-20.969 20.844-39.892 0-2.621-2.997 1.343-5.536 1.343-5.536zm-1.822 2.638l40.434.228" stroke="#C7B169" stroke-width="4" stroke-miterlimit="10" stroke-linecap="round" stroke-linejoin="round"/></svg>

<svg width="364" height="377" viewBox="0 0 364 377" fill="none" xmlns="http://www.w3.org/2000/svg">
<g id="icon">
<g id="g12">
<g id="g14">
<g id="g20">
<path id="path22" d="M182 373C280.176 373 360 290.53 360 188.5C360 86.4698 280.176 4.00003 182 4.00003C83.8237 4.00003 4 86.4698 4 188.5C4 290.53 83.8237 373 182 373Z" fill="white" stroke="#C8B268" stroke-width="8" stroke-miterlimit="10"/>
</g>
</g>
</g>
<g id="g24">
<g id="g26">
<g id="g32">
<path id="path34" d="M119.998 141.87L112.845 91.2374C112.845 91.2374 111.481 86.2012 115.402 86.8968C119.323 87.5897 172.339 95.2343 172.339 95.2343C172.339 95.2343 177.146 95.7546 176.875 99.7501C176.602 103.746 175.239 136.575 154.271 142.655C145.746 145.085 137.734 137.964 137.393 134.142C137.053 130.322 171.318 124.936 183.081 157.592C193.479 190.422 194.331 205.533 194.331 205.533C194.331 205.533 195.185 208.139 192.286 207.965C189.387 207.791 177.626 199.627 193.821 194.765L203.366 194.417C203.366 194.417 211.721 194.243 211.721 200.495C211.721 206.749 207.118 207.965 204.561 207.791C202.003 207.618 203.026 204.604 203.026 204.604C203.026 204.604 205.923 131.016 204.901 128.236C205.071 124.589 206.266 123.373 209.334 123.547C212.914 123.721 247.35 127.368 248.202 128.063C249.054 128.758 252.805 128.41 251.442 132.926C250.077 137.443 240.871 162.802 214.446 150.818C210.357 148.733 219.903 144.739 221.777 144.565C224.165 144.043 235.417 141.438 248.713 147.345C262.01 153.249 259.623 152.555 259.623 152.555C259.623 152.555 262.691 153.772 263.545 148.039C264.397 142.307 268.489 115.035 268.147 112.083C267.806 109.13 269.511 108.435 263.205 106.177C256.897 103.92 157.339 65.183 142.337 56.3252C138.927 54.9354 135.177 53.8934 135.177 57.1933C135.177 60.4933 136.647 90.2402 136.647 90.2402" stroke="#C7B169" stroke-width="4" stroke-miterlimit="10" stroke-linecap="round" stroke-linejoin="round"/>
</g>
<g id="g36">
<path id="path38" d="M120.577 145.965L119.998 141.869" stroke="#C7B169" stroke-width="4" stroke-miterlimit="10" stroke-linecap="round" stroke-linejoin="round"/>
</g>
<g id="g40">
<path id="path42" d="M121.369 207.488L118.877 321.066C118.877 321.066 118.137 324.507 116.765 322.26C115.737 320.574 117.958 299.506 140.973 294.467C163.988 289.43 187.342 288.606 199.446 303.327C212.913 319.48 208.481 320.87 207.118 319.827C205.753 318.786 175.921 285.522 172.852 281.442C170.964 278.929 165.01 260.77 184.274 262.334C178.818 257.817 156.146 253.301 137.733 232.109C119.322 210.918 103.298 167.841 103.298 167.841C103.298 167.841 102.105 165.929 104.492 165.583C106.878 165.235 143.87 158.634 154.952 160.024C165.35 161.935 176.772 187.642 164.498 203.449C159.896 209.182 135.688 212.482 133.642 206.228C131.957 201.077 125.59 173.017 123.337 163.015" stroke="#C7B169" stroke-width="4" stroke-miterlimit="10" stroke-linecap="round" stroke-linejoin="round"/>
</g>
<g id="g44">
<path id="path46" d="M120.482 146.966C123.184 141.211 128.409 135.536 138.365 132.935" stroke="#C7B169" stroke-width="4" stroke-miterlimit="10" stroke-linecap="round" stroke-linejoin="round"/>
</g>
<g id="g48">
<path id="path50" d="M117.881 163.413C117.881 163.413 116.659 155.109 120.482 146.967" stroke="#C7B169" stroke-width="4" stroke-miterlimit="10" stroke-linecap="round" stroke-linejoin="round"/>
</g>
<g id="g52">
<path id="path54" d="M182.396 261.101C184.817 262.43 186.258 262.895 188.804 263.191C195.197 263.938 200.992 256.855 200.992 250.3C200.992 243.742 195.829 237.905 189.394 237.905" stroke="#C7B169" stroke-width="4" stroke-miterlimit="10" stroke-linecap="round" stroke-linejoin="round"/>
</g>
<g id="g56">
<path id="path58" d="M172.192 222.404C172.192 222.404 180.246 216.021 180.566 215.63C180.886 215.24 181.845 214.197 183.636 215.63C185.425 217.062 190.22 221.817 197.314 216.021C199.106 214.898 199.617 215.043 200.192 215.63C200.768 216.216 209.91 223.642 209.91 223.642C209.91 223.642 212.21 224.814 210.741 227.94C209.27 231.067 189.772 248.784 170.849 227.94C168.228 224.943 172.192 222.404 172.192 222.404Z" stroke="#C7B169" stroke-width="4" stroke-miterlimit="10" stroke-linecap="round" stroke-linejoin="round"/>
</g>
<g id="g60">
<path id="path62" d="M170.37 225.042L210.804 225.27" stroke="#C7B169" stroke-width="4" stroke-miterlimit="10" stroke-linecap="round" stroke-linejoin="round"/>
</g>
</g>
</g>
</g>
</svg>
